**harm	**harte	**timestamp	**phrase	**leadinstrument	**kern
*M4/4	*M4/4	*	*	*	*
*D-:	*D-:	*	*	*	*D-:
1r;	N	0	.	r	1r;
=1	=1	=1	=1	=1	=1
*>A_intro	*>A_intro	*>A_intro	*>A_intro	*>A_intro	*>A_intro
1Im7	D-:7	1.599	newline	saxophone	1D- 1f 1a- 1cc
=2	=2	=2	=2	=2	=2
1Im7	D-:7	2.897	.	saxophone	1D- 1f 1a- 1cc
=3	=3	=3	=3	=3	=3
1IVm7	G-:7	4.194	.	saxophone	1G- 1b- 1dd- 1ff
=4	=4	=4	=4	=4	=4
1IVm7	G-:7	5.492	.	saxophone	1G- 1b- 1dd- 1ff
=5	=5	=5	=5	=5	=5
1Im7	D-:7	6.789	newline	saxophone	1D- 1f 1a- 1cc
=6	=6	=6	=6	=6	=6
1V7	A-:7	8.075	.	saxophone	1A- 1cc 1ee- 1gg-
=7	=7	=7	=7	=7	=7
1r	N	9.36	.	saxophone	1r
=8	=8	=8	=8	=8	=8
1r	N	10.645	.	saxophone	1r
=9	=9	=9	=9	=9	=9
*>B_verse	*>B_verse	*>B_verse	*>B_verse	*>B_verse	*>B_verse
1Im7	D-:7	11.931	newline	voice	1D- 1f 1a- 1cc
=10	=10	=10	=10	=10	=10
1Im7	D-:7	13.209	.	voice	1D- 1f 1a- 1cc
=11	=11	=11	=11	=11	=11
1Im7	D-:7	14.487	.	voice	1D- 1f 1a- 1cc
=12	=12	=12	=12	=12	=12
1Im7	D-:7	15.765	.	voice	1D- 1f 1a- 1cc
=13	=13	=13	=13	=13	=13
1Im7	D-:7	17.044	newline	voice	1D- 1f 1a- 1cc
=14	=14	=14	=14	=14	=14
1Im7	D-:7	18.325	.	voice	1D- 1f 1a- 1cc
=15	=15	=15	=15	=15	=15
1Im7	D-:7	19.607	.	voice	1D- 1f 1a- 1cc
=16	=16	=16	=16	=16	=16
1Im7	D-:7	20.888	.	voice	1D- 1f 1a- 1cc
=17	=17	=17	=17	=17	=17
1IVm7c	G-:7/5	22.17	newline	voice	1g- 1b- 1D- 1ff
=18	=18	=18	=18	=18	=18
1IVm7c	G-:7/5	23.423	.	voice	1g- 1b- 1D- 1ff
=19	=19	=19	=19	=19	=19
1IVm7c	G-:7/5	24.677	.	voice	1g- 1b- 1D- 1ff
=20	=20	=20	=20	=20	=20
1IVm7c	G-:7/5	25.931	.	voice	1g- 1b- 1D- 1ff
=21	=21	=21	=21	=21	=21
1Im7	D-:7	27.184	newline	voice	1D- 1f 1a- 1cc
=22	=22	=22	=22	=22	=22
1Im7	D-:7	28.446	.	voice	1D- 1f 1a- 1cc
=23	=23	=23	=23	=23	=23
1Im7	D-:7	29.708	.	voice	1D- 1f 1a- 1cc
=24	=24	=24	=24	=24	=24
1Im7	D-:7	30.97	.	voice	1D- 1f 1a- 1cc
=25	=25	=25	=25	=25	=25
1V7	A-:7	32.231	newline	voice	1A- 1cc 1ee- 1gg-
=26	=26	=26	=26	=26	=26
1V7	A-:7	33.525	.	voice	1A- 1cc 1ee- 1gg-
=27	=27	=27	=27	=27	=27
1IVm7	G-:7	34.818	.	voice	1G- 1b- 1dd- 1ff
=28	=28	=28	=28	=28	=28
1r	N	36.111	.	voice	1r
=29	=29	=29	=29	=29	=29
1Im7	D-:7	37.405	newline	voice	1D- 1f 1a- 1cc
=30	=30	=30	=30	=30	=30
1IVm7	G-:7	38.674	.	voice	1G- 1b- 1dd- 1ff
=31	=31	=31	=31	=31	=31
1Im7	D-:7	39.943	.	voice	1D- 1f 1a- 1cc
=32	=32	=32	=32	=32	=32
1V7	A-:7	41.212	.	voice	1A- 1cc 1ee- 1gg-
=33	=33	=33	=33	=33	=33
*>B_verse	*>B_verse	*>B_verse	*>B_verse	*>B_verse	*>B_verse
1Im7	D-:7	42.481	newline	voice	1D- 1f 1a- 1cc
=34	=34	=34	=34	=34	=34
1Im7	D-:7	43.759	.	voice	1D- 1f 1a- 1cc
=35	=35	=35	=35	=35	=35
1Im7	D-:7	45.036	.	voice	1D- 1f 1a- 1cc
=36	=36	=36	=36	=36	=36
1Im7	D-:7	46.314	.	voice	1D- 1f 1a- 1cc
=37	=37	=37	=37	=37	=37
1Im7	D-:7	47.591	newline	voice	1D- 1f 1a- 1cc
=38	=38	=38	=38	=38	=38
1Im7	D-:7	48.866	.	voice	1D- 1f 1a- 1cc
=39	=39	=39	=39	=39	=39
1Im7	D-:7	50.141	.	voice	1D- 1f 1a- 1cc
=40	=40	=40	=40	=40	=40
1Im7	D-:7	51.417	.	voice	1D- 1f 1a- 1cc
=41	=41	=41	=41	=41	=41
1IVm7c	G-:7/5	52.692	newline	voice	1g- 1b- 1D- 1ff
=42	=42	=42	=42	=42	=42
1IVm7c	G-:7/5	53.955	.	voice	1g- 1b- 1D- 1ff
=43	=43	=43	=43	=43	=43
1IVm7c	G-:7/5	55.218	.	voice	1g- 1b- 1D- 1ff
=44	=44	=44	=44	=44	=44
1IVm7c	G-:7/5	56.482	.	voice	1g- 1b- 1D- 1ff
=45	=45	=45	=45	=45	=45
1Im7	D-:7	57.745	newline	voice	1D- 1f 1a- 1cc
=46	=46	=46	=46	=46	=46
1Im7	D-:7	59.016	.	voice	1D- 1f 1a- 1cc
=47	=47	=47	=47	=47	=47
1Im7	D-:7	60.287	.	voice	1D- 1f 1a- 1cc
=48	=48	=48	=48	=48	=48
1Im7	D-:7	61.558	.	voice	1D- 1f 1a- 1cc
=49	=49	=49	=49	=49	=49
1V7	A-:7	62.829	newline	voice	1A- 1cc 1ee- 1gg-
=50	=50	=50	=50	=50	=50
1V7	A-:7	64.121	.	voice	1A- 1cc 1ee- 1gg-
=51	=51	=51	=51	=51	=51
1IVm7	G-:7	65.413	.	voice	1G- 1b- 1dd- 1ff
=52	=52	=52	=52	=52	=52
1r	N	66.706	.	voice	1r
=53	=53	=53	=53	=53	=53
1Im7	D-:7	67.998	newline	voice	1D- 1f 1a- 1cc
=54	=54	=54	=54	=54	=54
1IVm7	G-:7	69.276	.	voice	1G- 1b- 1dd- 1ff
=55	=55	=55	=55	=55	=55
1Im7	D-:7	70.553	.	voice	1D- 1f 1a- 1cc
=56	=56	=56	=56	=56	=56
1V7	A-:7	71.831	.	voice	1A- 1cc 1ee- 1gg-
=57	=57	=57	=57	=57	=57
*>B2_solo	*>B2_solo	*>B2_solo	*>B2_solo	*>B2_solo	*>B2_solo
2I	D-:maj	73.109	newline	saxophone	2D- 2f 2a-
2IV	G-:maj	73.745	.	saxophone	2G- 2b- 2dd-
=58	=58	=58	=58	=58	=58
1I	D-:maj	74.381	.	saxophone	1D- 1f 1a-
=59	=59	=59	=59	=59	=59
2I	D-:maj	75.654	.	saxophone	2D- 2f 2a-
2IV	G-:maj	76.291	.	saxophone	2G- 2b- 2dd-
=60	=60	=60	=60	=60	=60
1I	D-:maj	76.927	.	saxophone	1D- 1f 1a-
=61	=61	=61	=61	=61	=61
2I	D-:maj	78.2	newline	saxophone	2D- 2f 2a-
2IV	G-:maj	78.836	.	saxophone	2G- 2b- 2dd-
=62	=62	=62	=62	=62	=62
1I	D-:maj	79.472	.	saxophone	1D- 1f 1a-
=63	=63	=63	=63	=63	=63
2I	D-:maj	80.743	.	saxophone	2D- 2f 2a-
2IV	G-:maj	81.379	.	saxophone	2G- 2b- 2dd-
=64	=64	=64	=64	=64	=64
1I	D-:maj	82.014	.	saxophone	1D- 1f 1a-
=65	=65	=65	=65	=65	=65
2IVm7	G-:7	83.286	newline	saxophone	2G- 2b- 2dd- 2ff
2IV	G-:maj6	83.925	.	saxophone	2G- 2b- 2dd-
=66	=66	=66	=66	=66	=66
1IVm7	G-:7	84.564	.	saxophone	1G- 1b- 1dd- 1ff
=67	=67	=67	=67	=67	=67
2IVm7	G-:7	85.842	.	saxophone	2G- 2b- 2dd- 2ff
2IV	G-:maj6	86.481	.	saxophone	2G- 2b- 2dd-
=68	=68	=68	=68	=68	=68
1IVm7	G-:7	87.12	.	saxophone	1G- 1b- 1dd- 1ff
=69	=69	=69	=69	=69	=69
2I	D-:maj	88.398	newline	saxophone	2D- 2f 2a-
2IV	G-:maj	89.035	.	saxophone	2G- 2b- 2dd-
=70	=70	=70	=70	=70	=70
1I	D-:maj	89.673	.	saxophone	1D- 1f 1a-
=71	=71	=71	=71	=71	=71
2I	D-:maj	90.948	.	saxophone	2D- 2f 2a-
2IV	G-:maj	91.585	.	saxophone	2G- 2b- 2dd-
=72	=72	=72	=72	=72	=72
1I	D-:maj	92.223	.	saxophone	1D- 1f 1a-
=73	=73	=73	=73	=73	=73
1V7	A-:7	93.498	newline	saxophone	1A- 1cc 1ee- 1gg-
=74	=74	=74	=74	=74	=74
1V7	A-:7	94.783	.	saxophone	1A- 1cc 1ee- 1gg-
=75	=75	=75	=75	=75	=75
1IVm7	G-:7	96.068	.	saxophone	1G- 1b- 1dd- 1ff
=76	=76	=76	=76	=76	=76
1IVm7	G-:7	97.353	.	saxophone	1G- 1b- 1dd- 1ff
=77	=77	=77	=77	=77	=77
2I	D-:maj	98.638	newline	saxophone	2D- 2f 2a-
2IV	G-:maj	99.278	.	saxophone	2G- 2b- 2dd-
=78	=78	=78	=78	=78	=78
1I	D-:maj	99.917	.	saxophone	1D- 1f 1a-
=79	=79	=79	=79	=79	=79
2I	D-:maj	101.197	.	saxophone	2D- 2f 2a-
2IV	G-:maj	101.837	.	saxophone	2G- 2b- 2dd-
=80	=80	=80	=80	=80	=80
1I	D-:maj	102.477	.	saxophone	1D- 1f 1a-
=81	=81	=81	=81	=81	=81
*>B_verse	*>B_verse	*>B_verse	*>B_verse	*>B_verse	*>B_verse
1Im7	D-:7	103.757	newline	voice	1D- 1f 1a- 1cc
=82	=82	=82	=82	=82	=82
1Im7	D-:7	105.046	.	voice	1D- 1f 1a- 1cc
=83	=83	=83	=83	=83	=83
1Im7	D-:7	106.335	.	voice	1D- 1f 1a- 1cc
=84	=84	=84	=84	=84	=84
1Im7	D-:7	107.625	.	voice	1D- 1f 1a- 1cc
=85	=85	=85	=85	=85	=85
1Im7	D-:7	108.914	newline	voice	1D- 1f 1a- 1cc
=86	=86	=86	=86	=86	=86
1Im7	D-:7	110.198	.	voice	1D- 1f 1a- 1cc
=87	=87	=87	=87	=87	=87
1Im7	D-:7	111.482	.	voice	1D- 1f 1a- 1cc
=88	=88	=88	=88	=88	=88
1Im7	D-:7	112.765	.	voice	1D- 1f 1a- 1cc
=89	=89	=89	=89	=89	=89
1IVm7c	G-:7/5	114.049	newline	voice	1g- 1b- 1D- 1ff
=90	=90	=90	=90	=90	=90
1IVm7c	G-:7/5	115.321	.	voice	1g- 1b- 1D- 1ff
=91	=91	=91	=91	=91	=91
1IVm7c	G-:7/5	116.593	.	voice	1g- 1b- 1D- 1ff
=92	=92	=92	=92	=92	=92
1IVm7c	G-:7/5	117.865	.	voice	1g- 1b- 1D- 1ff
=93	=93	=93	=93	=93	=93
1Im7	D-:7	119.137	newline	voice	1D- 1f 1a- 1cc
=94	=94	=94	=94	=94	=94
1Im7	D-:7	120.42	.	voice	1D- 1f 1a- 1cc
=95	=95	=95	=95	=95	=95
1Im7	D-:7	121.702	.	voice	1D- 1f 1a- 1cc
=96	=96	=96	=96	=96	=96
1Im7	D-:7	122.985	.	voice	1D- 1f 1a- 1cc
=97	=97	=97	=97	=97	=97
1V7	A-:7	124.268	newline	voice	1A- 1cc 1ee- 1gg-
=98	=98	=98	=98	=98	=98
1V7	A-:7	125.56	.	voice	1A- 1cc 1ee- 1gg-
=99	=99	=99	=99	=99	=99
1IVm7	G-:7	126.853	.	voice	1G- 1b- 1dd- 1ff
=100	=100	=100	=100	=100	=100
1r	N	128.145	.	voice	1r
=101	=101	=101	=101	=101	=101
1Im7	D-:7	129.438	newline	voice	1D- 1f 1a- 1cc
=102	=102	=102	=102	=102	=102
1IVm7	G-:7	130.726	.	voice	1G- 1b- 1dd- 1ff
=103	=103	=103	=103	=103	=103
1Im7	D-:7	132.015	.	voice	1D- 1f 1a- 1cc
=104	=104	=104	=104	=104	=104
1V7	A-:7	133.304	.	voice	1A- 1cc 1ee- 1gg-
=105	=105	=105	=105	=105	=105
*>B_verse	*>B_verse	*>B_verse	*>B_verse	*>B_verse	*>B_verse
1Im7	D-:7	134.592	newline	voice	1D- 1f 1a- 1cc
=106	=106	=106	=106	=106	=106
1Im7	D-:7	135.876	.	voice	1D- 1f 1a- 1cc
=107	=107	=107	=107	=107	=107
1Im7	D-:7	137.159	.	voice	1D- 1f 1a- 1cc
=108	=108	=108	=108	=108	=108
1Im7	D-:7	138.443	.	voice	1D- 1f 1a- 1cc
=109	=109	=109	=109	=109	=109
*>_fadeout	*>_fadeout	*>_fadeout	*>_fadeout	*>_fadeout	*>_fadeout
1Im7	D-:7	139.726	newline	voice	1D- 1f 1a- 1cc
=110	=110	=110	=110	=110	=110
1Im7	D-:7	140.995	.	voice	1D- 1f 1a- 1cc
=111	=111	=111	=111	=111	=111
1Im7	D-:7	142.263	.	voice	1D- 1f 1a- 1cc
=112	=112	=112	=112	=112	=112
1Im7	D-:7	143.532	.	voice	1D- 1f 1a- 1cc
=113	=113	=113	=113	=113	=113
1IVm7c	G-:7/5	144.8	newline	voice	1g- 1b- 1D- 1ff
1r;	N	147.712	.	r	1r;
1r;	N	148.64	.	r	1r;
*-	*-	*-	*-	*-	*-
!!!OTL: See See Rider
!!!COC: LaVern Baker
!!!BillboardChartDate: 1963/02/02
!!!BillboardPeak: 34
!!!BillboardWeeksOnChart: 11
!!!SampleTargetRank: 47
!!!SampleActualRank: 48
!!!SampleID#: 0425
!!!RDF**harmony: **recip + pitch class of root + harmonic quality
!!!RDF**harte: Chris Harte's syntax, used by MIREX
!!!RDF**phrase: newline = linebreak in original McGill transcription
!!!RDF**timestamp: McGill audio timestamp in seconds
!!!RDF**leadinstrument: original McGill primary instrumentation annotation
!!!RDT: 2017/01/12/
!!!ENC: Nathaniel Condit-Schultz
!!!EST: Awating manual error checking and editing.
